packages/core/src/svgs/tokens/branded/KMD.svg

<svg width="24" height="24" viewBox="0 0 24 24" fill="none" xmlns="http://www.w3.org/2000/svg">
<path d="M11.9999 3.87499C7.51248 3.87499 3.87499 7.51248 3.87499 11.9999C3.87499 16.4875 7.51248 20.1249 11.9999 20.1249C16.4875 20.1249 20.1249 16.4875 20.1249 11.9999C20.1249 11.0375 19.958 10.1149 19.6518 9.26062C19.5708 9.02723 19.5851 8.77131 19.6917 8.54846C19.7983 8.32563 19.9887 8.15387 20.2211 8.07054C20.4537 7.9872 20.7098 7.99901 20.9337 8.10343C21.1575 8.20783 21.3312 8.39638 21.4168 8.6281C21.7949 9.6831 22 10.8187 22 11.9999C22 17.5231 17.5231 22 11.9999 22C6.47686 22 2 17.5231 2 11.9999C2 6.47685 6.47686 2 11.9999 2C13.0655 2 14.0937 2.16686 15.0594 2.47687C15.1766 2.5145 15.2853 2.57486 15.3792 2.6545C15.4731 2.73412 15.5504 2.83148 15.6067 2.941C15.663 3.05051 15.6972 3.17005 15.7073 3.29276C15.7174 3.41548 15.7032 3.53899 15.6656 3.65624C15.628 3.77349 15.5676 3.88218 15.488 3.97609C15.4083 4.07001 15.3109 4.14733 15.2014 4.20362C15.0919 4.25991 14.9724 4.29408 14.8497 4.30419C14.727 4.31429 14.6035 4.30012 14.4862 4.26248C13.6827 4.00488 12.8439 3.87414 11.9999 3.87499Z" fill="url(#paint0_linear_364_2108)"/>
<path d="M20.1246 5.74988C20.1246 6.24716 19.927 6.72406 19.5754 7.07569C19.2238 7.42732 18.7468 7.62487 18.2495 7.62487C17.7121 7.62487 17.1227 7.6705 16.7433 8.04987L16.1596 8.63361C15.5033 9.28993 15.4845 10.3286 15.6721 11.2368C15.8357 12.024 15.7418 12.843 15.4044 13.5729C15.0671 14.3028 14.5041 14.9048 13.7984 15.2904C13.0929 15.6759 12.282 15.8244 11.4855 15.714C10.6891 15.6036 9.94913 15.2401 9.37513 14.6771C8.80093 14.1142 8.42295 13.3816 8.29687 12.5875C8.1708 11.7933 8.30332 10.9797 8.67487 10.2667C9.04643 9.55359 9.63734 8.97884 10.3604 8.62718C11.0836 8.27552 11.9005 8.16559 12.6908 8.31361C13.5783 8.47862 14.5827 8.44299 15.222 7.80424L15.9865 7.03925C16.314 6.71238 16.3745 6.213 16.3745 5.74988C16.3745 5.25259 16.5721 4.77569 16.9237 4.42406C17.2753 4.07242 17.7522 3.87488 18.2495 3.87488C18.7468 3.87488 19.2238 4.07242 19.5754 4.42406C19.927 4.77569 20.1246 5.25259 20.1246 5.74988Z" fill="url(#paint1_linear_364_2108)"/>
<defs>
<linearGradient id="paint0_linear_364_2108" x1="18.1446" y1="4.57249" x2="7.38319" y2="20.0181" gradientUnits="userSpaceOnUse">
<stop stop-color="#00ECD2"/>
<stop offset="1" stop-color="#1B456E"/>
</linearGradient>
<linearGradient id="paint1_linear_364_2108" x1="17.8356" y1="5.40226" x2="11.4461" y2="14.5726" gradientUnits="userSpaceOnUse">
<stop stop-color="#00ECD2"/>
<stop offset="1" stop-color="#1B456E"/>
</linearGradient>
</defs>
</svg>

<svg xmlns="http://www.w3.org/2000/svg" width="24" height="24" fill="none" viewBox="0 0 24 24">
    <path fill="url(#KMD__a)" d="M12 3.875A8.125 8.125 0 0 0 3.875 12 8.125 8.125 0 0 0 12 20.125 8.125 8.125 0 0 0 20.125 12c0-.963-.167-1.885-.473-2.74a.938.938 0 0 1 1.765-.632A10 10 0 0 1 22 12c0 5.523-4.477 10-10 10S2 17.523 2 12 6.477 2 12 2c1.066 0 2.094.167 3.06.477a.938.938 0 0 1-.574 1.785A8.1 8.1 0 0 0 12 3.875"/>
    <path fill="url(#KMD__b)" d="M20.125 5.75a1.875 1.875 0 0 1-1.875 1.875c-.538 0-1.127.045-1.507.425l-.583.584c-.657.656-.675 1.695-.488 2.603a3.75 3.75 0 1 1-2.981-2.923c.887.165 1.892.129 2.531-.51l.765-.765c.327-.327.388-.826.388-1.29a1.875 1.875 0 0 1 3.75 0"/>
    <defs>
        <linearGradient id="KMD__a" x1="18.145" x2="7.383" y1="4.572" y2="20.018" gradientUnits="userSpaceOnUse">
            <stop stop-color="#00ECD2"/>
            <stop offset="1" stop-color="#1B456E"/>
        </linearGradient>
        <linearGradient id="KMD__b" x1="17.836" x2="11.446" y1="5.402" y2="14.573" gradientUnits="userSpaceOnUse">
            <stop stop-color="#00ECD2"/>
            <stop offset="1" stop-color="#1B456E"/>
        </linearGradient>
    </defs>
</svg>
